X:2
T: Walzer  FBb chords (align)
M:3/4
L:1/8
K:F %%MIDI gchordon
"Gm"f2B2f2 | "C7"e2B2e2 | d2B2d2 | "F"c6 | "C7"dc =Bc eg | c'3c'c'2 | "F"dc Ac fa | c'3c'c'2 | "Gm"f2B2f2 |
 "C7"e2B2e2 | d2B2d2 | "F"c6 | "C7"dc =Bc eg | c'3c'c'2 | "Bb"d'd'd'2 "C7"e2 | "F"f2z2c'c' || "Gm"c'2z2bb | "C7"a2z2g2 |
 "F"g2z2f2 | "G7"e2z2d2 | "C7"dc =Bc eg |  c'3c'c'2 | "F"dc =Bc fa | c'3c'c'2 | "Gm"c'2z2bb | "C7"a2z2g2 | "F"g2z2ff |
 "G7"e2z2d2 | "C7"dc =Bc eg |  c'3c'c'2 | ce g2e2 | "F"f2z2ff |: [K:Bb] [L:1/4] "Bb"f3 | dfb | "Cm"a2g | fze | "F7"ede |
 f2d | B3 | F2B/B/ | "Eb"Beg | b>ag | "Bb"fd'>c' | b>bb | "F7"a>gf | ecf | "Bb"B3 | bzz :| 

